src/assets/icons/parking.svg

<svg width="23" height="23" viewBox="0 0 23 23" fill="none" xmlns="http://www.w3.org/2000/svg">
<path fill-rule="evenodd" clip-rule="evenodd" d="M11.5862 22.4967C17.6917 22.4967 22.6412 17.5472 22.6412 11.4417C22.6412 5.33625 17.6918 0.386719 11.5862 0.386719C5.48073 0.386719 0.53125 5.33625 0.53125 11.4417C0.53125 17.5472 5.48073 22.4967 11.5862 22.4967ZM13.0763 5.39989H8.05164V13.6503L8.05195 17.232H10.8157V13.6503H13.0763C15.3068 13.6503 17.0917 11.791 17.0917 9.52508C17.0917 7.25911 15.3068 5.39989 13.0763 5.39989ZM10.8157 8.16359V10.8865H13.0764C13.7548 10.8865 14.328 10.2893 14.328 9.52508C14.328 8.7608 13.7548 8.16359 13.0764 8.16359H10.8157Z" fill="black"/>
</svg>

<svg xmlns="http://www.w3.org/2000/svg" width="23" height="23" fill="none"><path fill="#000" fill-rule="evenodd" d="M11.586 22.497c6.106 0 11.055-4.95 11.055-11.055 0-6.106-4.95-11.055-11.055-11.055S.531 5.337.531 11.442s4.95 11.055 11.055 11.055M13.076 5.4H8.052v11.832h2.764V13.65h2.26c2.23 0 4.016-1.859 4.016-4.125S15.307 5.4 13.076 5.4m-2.26 2.764v2.723h2.26c.679 0 1.252-.598 1.252-1.362s-.573-1.361-1.252-1.361z" clip-rule="evenodd"/></svg>
